public/img/assets/icons/weather-conditions/small/thunder-night.svg

<svg width="24" height="24" viewBox="0 0 24 24" fill="none" xmlns="http://www.w3.org/2000/svg">
<path d="M17.227 8.63C16.966 6.098 15.169 4 12 4C8.832 4 7.036 6.08 6.772 8.632H6.692C6.20782 8.63134 5.72824 8.72606 5.28066 8.91074C4.83309 9.09542 4.42627 9.36645 4.08343 9.70836C3.7406 10.0503 3.46846 10.4563 3.28257 10.9034C3.09667 11.3505 3.00066 11.8298 3 12.314C3.00066 12.7983 3.09671 13.2777 3.28266 13.7248C3.46862 14.1719 3.74085 14.5781 4.08379 14.92C4.42673 15.2619 4.83366 15.5329 5.28136 15.7175C5.72905 15.9022 6.20873 15.9968 6.693 15.996H7.256H8.988H11.125H12.857H14.993L16.725 15.997H17.307C17.7914 15.9978 18.2711 15.9031 18.7189 15.7184C19.1666 15.5338 19.5736 15.2627 19.9166 14.9206C20.2595 14.5786 20.5317 14.1724 20.7176 13.7251C20.9035 13.2779 20.9995 12.7984 21 12.314C20.9996 11.8296 20.9037 11.35 20.7179 10.9026C20.5321 10.4552 20.2599 10.0488 19.9169 9.70671C19.574 9.36458 19.1669 9.09339 18.7191 8.90865C18.2713 8.7239 17.7914 8.62921 17.307 8.63H17.227Z" fill="#D580FF"/>
<path d="M9.00816 19.0777L9.4916 16H13.6689L13.3689 17.2729H14.4007C14.5108 17.2731 14.6189 17.3054 14.7129 17.3664C14.8069 17.4273 14.8833 17.5145 14.9337 17.6185C14.984 17.7225 15.0064 17.8391 14.9984 17.9557C14.9904 18.0723 14.9523 18.1842 14.8882 18.2793L11.8878 22.7346C11.8138 22.844 11.709 22.9256 11.5885 22.9679C11.4679 23.0101 11.3379 23.0107 11.217 22.9696C11.0961 22.9285 10.9906 22.8478 10.9157 22.7391C10.8408 22.6304 10.8004 22.4993 10.8002 22.3646V19.8188H9.59999C9.51285 19.8188 9.42676 19.7986 9.3477 19.7597C9.26864 19.7209 9.19851 19.6642 9.14218 19.5937C9.08586 19.5232 9.0447 19.4405 9.02155 19.3514C8.99841 19.2622 8.99384 19.1689 9.00816 19.0777Z" fill="#D580FF"/>
</svg>

<svg width="24" height="24" fill="none" xmlns="http://www.w3.org/2000/svg"><path d="M17.227 8.63C16.966 6.098 15.169 4 12 4 8.832 4 7.036 6.08 6.772 8.632h-.08A3.687 3.687 0 0 0 3 12.314a3.687 3.687 0 0 0 3.693 3.682h8.3l1.732.001h.582a3.687 3.687 0 0 0 3.41-5.094 3.685 3.685 0 0 0-3.41-2.273h-.08ZM9.008 19.078 9.492 16h4.177l-.3 1.273H14.4c.11 0 .218.032.312.093s.17.149.22.253a.67.67 0 0 1-.045.66l-3 4.456a.604.604 0 0 1-.3.233.568.568 0 0 1-.371.002.603.603 0 0 1-.301-.23.662.662 0 0 1-.116-.375v-2.546H9.6a.57.57 0 0 1-.252-.06.605.605 0 0 1-.206-.165.65.65 0 0 1-.134-.516Z" fill="#D580FF"/></svg>
